X:375
T: Paddy Fahey's #1
S: "Music from Ireland 2" (Bulmer & Sharpley)
R: reel
M: 4/4
L: 1/8
K: Dm
D2 A,D FEFG|Ad^ce d2 de|f2 df edcA|dcAG FDCE|
DA, A,2 FEFG|Ad^cA d2 de|f2 gf edcA|dcAG FD D2 :|
Ad d2 ^fded|c2 Gc EcGc|Ad d2 ^fded|cBcd ed d2|
a2 ^ga ABcA|dcAG FDCE|D2 DE FGFG|Ad^cA d4 :|
